X:1
T:Polsk
T:(Totakt-pols, nr. HJH-280)
S:efter Hans Jens Hansen,
O:Hjertinge, Ribe amt, Danmark
R:Totakt-pols
Z:ABC-transkribering av Åke Persson
M:2/4
L:1/8
Q:1/4=100
K:D
|: "D"FAdF | "Em"E/D/E/F/ EF | "A"GBAG | "D"G2 F2 | D/F/A dd | "A"c/A/c/d/ ed | cA"Em"BG | "A"A2 A2 :|
|: "D"faag | f/g/a/f/ dd | "Em"ggbg | "A"e/d/c/B/ A2 | "Em"gb"A"bg | "D"f/g/a/f/ dd | "A"e/f/g/e/ dc | "D"d2 d2 :|

